X:14993
T:Schottische (Halling)
R:Schottische
P:AABAABCC
O:Sweden
O:Norway
M:4/4
K:DDor
P:A
A2 | A2f2f2ed | e3fe2A2 | A2d2d2cB | c3dc2 :|\
P:B
A2 | A2f2f2ed | g2ga gffg | a3_ba3b | \
agfed2ag | f2ed e2c2 | d4 |: \
P:C
A2 | \
f2ag f2ed | cdc_B ABAG | FGFD EFED | E6 A2 |\
f2ag f2ed | cdc_B ABAG | FGFD EFED | E6 ag| \
f2ed e2^c2 | d6 :|**
